app/images/logo.svg

<?xml version="1.0" encoding="UTF-8" standalone="no"?>
<svg width="393px" height="160px" viewBox="0 0 393 160" version="1.1" xmlns="http://www.w3.org/2000/svg" xmlns:xlink="http://www.w3.org/1999/xlink" xmlns:sketch="http://www.bohemiancoding.com/sketch/ns">
    <!-- Generator: Sketch 3.3.2 (12043) - http://www.bohemiancoding.com/sketch -->
    <title>logo</title>
    <desc>Created with Sketch.</desc>
    <defs></defs>
    <g id="1920x1024" stroke="none" stroke-width="1" fill="none" fill-rule="evenodd" sketch:type="MSPage">
        <g id="1920x1024---20160718_main" sketch:type="MSArtboardGroup" transform="translate(-330.000000, -67.000000)">
            <g id="Header-Copy" sketch:type="MSLayerGroup" transform="translate(-16.000000, 57.000000)">
                <g id="logo" transform="translate(345.000000, 10.000000)">
                    <ellipse id="Oval-17" fill="#FFEF2B" sketch:type="MSShapeGroup" cx="63.048583" cy="61.9431818" rx="62.048583" ry="61.9431818"></ellipse>
                    <path d="M138.023039,67.8003884 C138.023039,34.8239959 111.201864,8.09117665 78.1141682,8.09117665 C48.3377855,8.09117665 24.1989597,32.1504835 24.1989597,61.8287758 C24.1989597,88.5408523 45.9236717,110.196303 72.7240348,110.196303 C96.8420492,110.196303 116.395446,90.7073192 116.395446,66.6664504 C116.395446,45.029438 98.7983139,27.4925795 77.0921009,27.4925795 C57.5525782,27.4925795 41.7151591,43.2778264 41.7151591,62.7483719 C41.7151591,80.2737066 55.968605,94.4825031 73.5541755,94.4825031 C89.3777203,94.4825031 102.206747,81.6957386 102.206747,65.9220155 C102.206747,51.7270475 90.6610854,40.2194205 76.4192013,40.2194205 C63.5994245,40.2194205 53.2076358,50.5769762 53.2076358,63.3522169 C53.2076358,74.850625 62.5611706,84.1710424 74.0975823,84.1710424 C84.4801216,84.1710424 92.8971468,75.7840496 92.8971468,65.4334081 C92.8971468,56.119905 85.3218241,48.5718419 75.9775388,48.5718419 C67.5674507,48.5718419 60.7505853,55.366251 60.7505853,63.7486343 C60.7505853,71.2920878 66.8853017,77.406595 74.4536872,77.406595" id="Stroke-1" stroke="#479EAF" stroke-width="2" stroke-linecap="round" stroke-linejoin="round" sketch:type="MSShapeGroup"></path>
                    <path d="M143.260156,79.815061 C145.271918,79.815061 147.373862,80.0063554 149.563676,80.3843347 C151.75349,80.762314 153.587199,81.26475 155.062491,81.8870331 L154.05661,86.6325176 C152.537383,86.0978151 150.90485,85.6645217 149.161323,85.3303326 C147.417797,84.9961436 145.697394,84.8302014 143.997802,84.8302014 C138.408805,84.8302014 134.049988,86.3882138 130.921352,89.5065434 C127.790404,92.6271777 126.227242,97.0822634 126.227242,102.874105 C126.227242,108.668252 127.790404,113.123338 130.921352,116.241667 C134.049988,119.362302 138.408805,120.920314 143.997802,120.920314 C145.697394,120.920314 147.417797,120.754372 149.161323,120.420183 C150.90485,120.085994 152.537383,119.650396 154.05661,119.115693 L155.062491,123.863482 C153.587199,124.485765 151.75349,124.988201 149.563676,125.366181 C147.373862,125.74416 145.271918,125.93315 143.260156,125.93315 C139.592738,125.93315 136.318423,125.354657 133.43721,124.195367 C130.553686,123.038381 128.125698,121.434274 126.160183,119.383044 C124.192357,117.33412 122.68238,114.904911 121.634876,112.097723 C120.582748,109.290535 120.05784,106.215996 120.05784,102.874105 C120.05784,99.5322149 120.582748,96.4576756 121.634876,93.6504876 C122.68238,90.8432996 124.192357,88.4163957 126.160183,86.3674711 C128.125698,84.3162417 130.553686,82.7121343 133.43721,81.552844 C136.318423,80.3958585 139.592738,79.815061 143.260156,79.815061" id="Fill-2" fill="#000000" sketch:type="MSShapeGroup"></path>
                    <path d="M163.107224,125.131096 L163.107224,93.0489473 L169.144821,93.0489473 L169.144821,108.22113 L182.020095,93.0489473 L188.994201,93.0489473 L175.043676,108.22113 L190.131887,125.131096 L182.824799,125.131096 L169.144821,109.223697 L169.144821,125.131096 L163.107224,125.131096" id="Fill-3" fill="#000000" sketch:type="MSShapeGroup"></path>
                    <path d="M200.660106,93.0489473 L222.320071,93.0489473 L222.320071,125.131096 L216.284787,125.131096 L216.284787,97.727594 L205.890686,97.727594 L205.488333,102.807268 C204.995799,108.868765 203.934421,113.936915 202.3042,118.014022 C200.669355,122.091128 198.424044,124.776164 195.563643,126.066825 L192.478942,121.323646 C193.551882,120.788943 194.490704,120.085994 195.295408,119.217102 C196.100113,118.348211 196.803073,117.168178 197.408914,115.674698 C198.01013,114.181219 198.514227,112.298237 198.916579,110.025751 C199.318931,107.753265 199.654225,104.946077 199.92246,101.604187 L200.660106,93.0489473" id="Fill-4" fill="#000000" sketch:type="MSShapeGroup"></path>
                    <path d="M250.149439,121.120827 C249.656904,121.701625 249.053376,122.268594 248.338854,122.826344 C247.624331,123.384094 246.805753,123.884225 245.892367,124.329042 C244.974356,124.776164 243.968475,125.131096 242.872412,125.398447 C241.778661,125.665799 240.627101,125.799474 239.420044,125.799474 C238.07887,125.799474 236.848689,125.589742 235.731815,125.165667 C234.61494,124.741593 233.652994,124.153881 232.84829,123.393313 C232.043585,122.637354 231.405371,121.701625 230.93596,120.586125 C230.468862,119.47293 230.233,118.249106 230.233,116.910045 C230.233,113.971487 231.271254,111.742791 233.352386,110.226264 C235.431207,108.712042 238.212987,107.843151 241.700041,107.61959 C243.131397,107.532009 244.551192,107.465171 245.957113,107.419076 C247.365346,107.375286 248.718082,107.352239 250.015321,107.352239 L250.015321,105.948645 C250.015321,103.231342 249.432604,101.104056 248.271795,99.5667862 C247.108673,98.0295165 245.187094,97.2620341 242.504745,97.2620341 C240.939271,97.2620341 239.452417,97.4602428 238.046497,97.8612696 C236.638264,98.2622965 235.285527,98.8200465 233.988288,99.5322149 L232.580055,95.1209194 C234.279647,94.0976095 236.011611,93.3831364 237.775949,92.9821095 C239.5426,92.5810826 241.475741,92.3805692 243.577685,92.3805692 C247.376908,92.3805692 250.406112,93.5398595 252.662985,95.8561353 C254.919857,98.1747159 256.050606,101.493559 256.050606,105.814969 L256.050606,125.131096 L250.149439,125.131096 L250.149439,121.120827 L250.149439,121.120827 Z M241.163571,121.388179 C242.907097,121.388179 244.53963,120.998676 246.058857,120.219669 C247.578084,119.440663 248.896135,118.447315 250.015321,117.244235 L250.015321,111.295669 C248.674147,111.385555 247.423155,111.47544 246.260033,111.563021 C245.096911,111.652906 243.93379,111.763534 242.77298,111.89721 C241.834158,111.987095 240.950833,112.143818 240.123005,112.365074 C239.297489,112.588635 238.580654,112.890558 237.979438,113.268537 C237.373597,113.646517 236.904186,114.137429 236.568892,114.738969 C236.233599,115.340509 236.067108,116.064201 236.067108,116.910045 C236.067108,118.426572 236.513396,119.551291 237.408283,120.286507 C238.300857,121.021723 239.554162,121.388179 241.163571,121.388179 L241.163571,121.388179 Z" id="Fill-5" fill="#000000" sketch:type="MSShapeGroup"></path>
                    <path d="M264.097652,120.452449 C264.500004,120.051423 265.024912,119.173312 265.672376,117.813508 C266.319839,116.453705 266.969615,114.616817 267.617078,112.298237 C268.264542,109.981961 268.835697,107.218563 269.328232,104.010348 C269.818454,100.802133 270.109813,97.1491012 270.199995,93.0489473 L291.859961,93.0489473 L291.859961,120.452449 L295.54819,120.452449 L295.54819,133.151633 L290.183493,133.151633 L290.183493,125.131096 L266.780001,125.131096 L266.780001,133.151633 L261.415303,133.151633 L261.415303,120.452449 L264.097652,120.452449 L264.097652,120.452449 Z M275.69881,97.727594 C275.072158,103.876673 274.24433,108.767356 273.217638,112.399646 C272.188633,116.031935 271.182752,118.714666 270.199995,120.452449 L285.824676,120.452449 L285.824676,97.727594 L275.69881,97.727594 L275.69881,97.727594 Z" id="Fill-6" fill="#000000" sketch:type="MSShapeGroup"></path>
                    <path d="M318.278783,125.131096 L318.278783,136.560362 L312.511733,136.560362 L312.511733,120.251936 L315.998787,120.185098 C317.115661,118.447315 318.066045,116.39839 318.849938,114.03602 C319.631519,111.675954 320.302106,108.901032 320.8617,105.715865 C321.418981,102.530697 321.888392,98.8753605 322.269933,94.7544638 C322.649161,90.6335671 323.016828,85.9203492 323.375246,80.6171147 L349.662263,80.6171147 L349.662263,120.251936 L353.819903,120.251936 L353.819903,136.560362 L348.052853,136.560362 L348.052853,125.131096 L318.278783,125.131096 L318.278783,125.131096 Z M328.605825,85.4962748 C328.203473,90.5966911 327.768748,95.0356436 327.299337,98.815437 C326.829926,102.597535 326.314267,105.861064 325.756986,108.610633 C325.197393,111.362507 324.616988,113.664955 324.01346,115.522585 C323.409931,117.37791 322.794841,118.956665 322.168189,120.251936 L343.492861,120.251936 L343.492861,85.4962748 L328.605825,85.4962748 L328.605825,85.4962748 Z" id="Fill-7" fill="#000000" sketch:type="MSShapeGroup"></path>
                    <path d="M392.380978,112.680825 C392.380978,114.508494 391.964751,116.195572 391.134611,117.735147 C390.306782,119.274721 389.127474,120.590735 387.605935,121.685492 C386.084395,122.777944 384.255311,123.626093 382.127931,124.227633 C380.000551,124.831478 377.639622,125.131096 375.038206,125.131096 L362.403419,125.131096 L362.403419,80.6171147 L376.247575,80.6171147 C378.402704,80.6171147 380.37053,80.8729421 382.164929,81.3845971 C383.957015,81.8985568 385.492429,82.6291632 386.771169,83.5856353 C388.045285,84.5421074 389.032667,85.689874 389.724065,87.0243254 C390.420088,88.3587769 390.766944,89.8245992 390.766944,91.4264019 C390.766944,94.0054194 389.90443,96.1741911 388.179402,97.9327169 C386.454375,99.688938 384.246062,101.011866 381.559088,101.9015 C384.875026,102.526088 387.506503,103.742997 389.453518,105.549923 C391.405158,107.356848 392.380978,109.735352 392.380978,112.680825 L392.380978,112.680825 Z M374.002264,99.7327283 C375.526116,99.7327283 376.943599,99.5575671 378.261649,99.2049401 C379.5797,98.852313 380.719698,98.3429628 381.681644,97.681499 C382.64359,97.0177304 383.392797,96.2248957 383.929267,95.2983853 C384.468049,94.3695702 384.733972,93.311689 384.733972,92.1178275 C384.733972,89.9121798 383.894581,88.255063 382.218114,87.1510868 C380.541646,86.0494153 378.361081,85.4962748 375.678732,85.4962748 L368.304586,85.4962748 L368.304586,99.7327283 L374.002264,99.7327283 L374.002264,99.7327283 Z M386.477498,112.466483 C386.477498,111.134337 386.160704,109.970437 385.534051,108.972479 C384.905087,107.974522 384.051823,107.15403 382.976571,106.508699 C381.896694,105.865674 380.64339,105.38859 379.205096,105.079753 C377.773739,104.768612 376.247575,104.614193 374.631229,104.614193 L368.304586,104.614193 L368.304586,120.251936 L375.440558,120.251936 C378.805056,120.251936 381.487405,119.597386 383.48298,118.290592 C385.478555,116.981493 386.477498,115.038587 386.477498,112.466483 L386.477498,112.466483 Z" id="Fill-8" fill="#000000" sketch:type="MSShapeGroup"></path>
                    <text id="интернет-магазин-интерьерных-решений" sketch:type="MSTextLayer" font-family="Open Sans" font-size="18" font-weight="260" fill="#000000">
                        <tspan x="0.184487403" y="158.890756">ИНТЕРНЕТ-МАГАЗИН ИНТЕРЬЕРНЫХ РЕШЕНИЙ</tspan>
                    </text>
                </g>
            </g>
        </g>
    </g>
</svg>

<?xml version="1.0" encoding="utf-8"?>
<!-- Generator: Adobe Illustrator 16.0.4, SVG Export Plug-In . SVG Version: 6.00 Build 0)  -->
<!DOCTYPE svg PUBLIC "-//W3C//DTD SVG 1.1//EN" "http://www.w3.org/Graphics/SVG/1.1/DTD/svg11.dtd">
<svg version="1.1" id="Layer_1" xmlns:sketch="http://www.bohemiancoding.com/sketch/ns"
	 xmlns="http://www.w3.org/2000/svg" xmlns:xlink="http://www.w3.org/1999/xlink" x="0px" y="0px" width="393px" height="160px"
	 viewBox="0 0 393 160" enable-background="new 0 0 393 160" xml:space="preserve">
<title>logo</title>
<desc>Created with Sketch.</desc>
<g id="_x31_920x1024---20160718_x5F_main" transform="translate(-330.000000, -67.000000)" sketch:type="MSArtboardGroup">
	<g id="Header-Copy" transform="translate(-16.000000, 57.000000)" sketch:type="MSLayerGroup">
		<g id="logo" transform="translate(345.000000, 10.000000)">
			<ellipse id="Oval-17" sketch:type="MSShapeGroup" fill="#FFEF2B" cx="63.049" cy="61.943" rx="62.048" ry="61.943">
			</ellipse>
			
				<path id="Stroke-1" sketch:type="MSShapeGroup" fill="none" stroke="#479EAF" stroke-width="2" stroke-linecap="round" stroke-linejoin="round" d="
				M138.023,67.8c0-32.976-26.821-59.709-59.909-59.709c-29.776,0-53.916,24.059-53.916,53.737
				c0,26.712,21.725,48.368,48.525,48.368c24.118,0,43.671-19.489,43.671-43.53c0-21.637-17.597-39.174-39.303-39.174
				c-19.54,0-35.377,15.785-35.377,35.256c0,17.525,14.253,31.734,31.839,31.734c15.824,0,28.652-12.787,28.652-28.561
				c0-14.195-11.545-25.703-25.787-25.703c-12.82,0-23.212,10.358-23.212,23.133c0,11.499,9.354,20.819,20.89,20.819
				c10.382,0,18.799-8.387,18.799-18.737c0-9.313-7.575-16.862-16.919-16.862c-8.41,0-15.227,6.794-15.227,15.177
				c0,7.543,6.135,13.658,13.703,13.658"/>
			<path id="Fill-2" sketch:type="MSShapeGroup" d="M143.26,79.815c2.012,0,4.114,0.191,6.303,0.569
				c2.19,0.377,4.024,0.88,5.499,1.502l-1.006,4.746c-1.519-0.535-3.152-0.969-4.896-1.303c-1.743-0.334-3.464-0.5-5.163-0.5
				c-5.589,0-9.948,1.559-13.077,4.676c-3.131,3.121-4.694,7.576-4.694,13.368c0,5.794,1.563,10.249,4.694,13.368
				c3.128,3.12,7.487,4.678,13.077,4.678c1.699,0,3.42-0.166,5.163-0.5c1.744-0.334,3.376-0.77,4.896-1.305l1.006,4.748
				c-1.475,0.623-3.309,1.125-5.499,1.503c-2.189,0.378-4.292,0.567-6.303,0.567c-3.667,0-6.942-0.579-9.823-1.738
				c-2.883-1.156-5.312-2.762-7.277-4.812c-1.968-2.049-3.478-4.479-4.525-7.285c-1.052-2.807-1.577-5.882-1.577-9.224
				s0.525-6.417,1.577-9.224c1.048-2.807,2.558-5.234,4.525-7.283c1.965-2.051,4.394-3.655,7.277-4.814
				C136.318,80.396,139.593,79.815,143.26,79.815"/>
			<path id="Fill-3" sketch:type="MSShapeGroup" d="M163.107,125.131V93.049h6.038v15.172l12.875-15.172h6.974l-13.951,15.172
				l15.088,16.91h-7.307l-13.68-15.907v15.907H163.107"/>
			<path id="Fill-4" sketch:type="MSShapeGroup" d="M200.66,93.049h21.66v32.082h-6.035V97.728h-10.395l-0.402,5.079
				c-0.492,6.062-1.554,11.131-3.184,15.207c-1.635,4.078-3.881,6.763-6.741,8.053l-3.084-4.742
				c1.073-0.535,2.012-1.238,2.816-2.107s1.508-2.049,2.113-3.542c0.601-1.493,1.105-3.376,1.507-5.649
				c0.402-2.271,0.738-5.079,1.006-8.422L200.66,93.049"/>
			<path id="Fill-5" sketch:type="MSShapeGroup" d="M250.149,121.121c-0.493,0.58-1.097,1.147-1.811,1.705
				c-0.714,0.559-1.533,1.059-2.446,1.503c-0.918,0.447-1.924,0.802-3.02,1.069c-1.094,0.268-2.246,0.4-3.453,0.4
				c-1.341,0-2.571-0.209-3.688-0.633c-1.117-0.424-2.08-1.012-2.885-1.772c-0.805-0.757-1.442-1.692-1.912-2.808
				c-0.467-1.113-0.703-2.337-0.703-3.676c0-2.938,1.039-5.168,3.12-6.684c2.079-1.515,4.86-2.383,8.348-2.607
				c1.431-0.087,2.851-0.154,4.257-0.2c1.408-0.044,2.762-0.067,4.059-0.067v-1.402c0-2.718-0.583-4.846-1.744-6.383
				c-1.162-1.537-3.084-2.305-5.767-2.305c-1.565,0-3.052,0.199-4.458,0.6c-1.408,0.4-2.762,0.959-4.059,1.671l-1.408-4.411
				c1.699-1.023,3.432-1.738,5.195-2.139c1.768-0.401,3.7-0.602,5.803-0.602c3.799,0,6.828,1.159,9.085,3.475
				c2.257,2.319,3.388,5.639,3.388,9.959v19.316h-5.901V121.121L250.149,121.121z M241.164,121.389c1.743,0,3.375-0.391,4.895-1.169
				c1.52-0.779,2.838-1.772,3.957-2.976v-5.948c-1.342,0.09-2.592,0.18-3.756,0.267c-1.163,0.09-2.326,0.201-3.486,0.335
				c-0.939,0.09-1.822,0.247-2.65,0.468c-0.826,0.224-1.543,0.525-2.144,0.903c-0.606,0.378-1.075,0.868-1.411,1.47
				c-0.335,0.602-0.502,1.326-0.502,2.172c0,1.517,0.447,2.641,1.342,3.377C238.301,121.021,239.555,121.389,241.164,121.389
				L241.164,121.389z"/>
			<path id="Fill-6" sketch:type="MSShapeGroup" d="M264.098,120.453c0.402-0.402,0.928-1.279,1.574-2.64
				c0.648-1.36,1.298-3.196,1.945-5.515c0.647-2.316,1.219-5.08,1.711-8.289c0.49-3.207,0.781-6.861,0.872-10.961h21.659v27.404
				h3.689v12.698h-5.365v-8.021h-23.404v8.021h-5.363v-12.698H264.098L264.098,120.453z M275.699,97.728
				c-0.627,6.149-1.455,11.04-2.481,14.672c-1.029,3.632-2.035,6.315-3.018,8.054h15.624V97.728H275.699L275.699,97.728z"/>
			<path id="Fill-7" sketch:type="MSShapeGroup" d="M318.278,125.131v11.43h-5.767v-16.309l3.487-0.066
				c1.116-1.738,2.067-3.787,2.851-6.149c0.782-2.36,1.452-5.136,2.012-8.32c0.558-3.185,1.027-6.841,1.408-10.962
				c0.38-4.12,0.747-8.834,1.105-14.137h26.287v39.635h4.158v16.309h-5.768v-11.43H318.278L318.278,125.131z M328.605,85.496
				c-0.402,5.101-0.837,9.539-1.306,13.319c-0.47,3.782-0.985,7.046-1.543,9.796c-0.56,2.751-1.14,5.054-1.743,6.911
				c-0.604,1.855-1.219,3.435-1.846,4.729h21.325V85.496H328.605L328.605,85.496z"/>
			<path id="Fill-8" sketch:type="MSShapeGroup" d="M392.381,112.681c0,1.827-0.416,3.515-1.246,5.055
				c-0.828,1.54-2.007,2.855-3.529,3.95c-1.521,1.092-3.351,1.94-5.478,2.542c-2.127,0.604-4.488,0.903-7.09,0.903h-12.635V80.617
				h13.845c2.154,0,4.122,0.256,5.917,0.768c1.792,0.514,3.327,1.244,4.606,2.201c1.273,0.956,2.261,2.104,2.952,3.438
				c0.696,1.335,1.043,2.8,1.043,4.401c0,2.58-0.862,4.748-2.587,6.507c-1.726,1.757-3.934,3.079-6.621,3.969
				c3.316,0.624,5.948,1.842,7.895,3.648C391.405,107.357,392.381,109.735,392.381,112.681L392.381,112.681z M374.002,99.732
				c1.524,0,2.941-0.175,4.26-0.527s2.458-0.862,3.42-1.523c0.962-0.664,1.711-1.457,2.248-2.383
				c0.538-0.93,0.805-1.987,0.805-3.182c0-2.205-0.84-3.862-2.517-4.967c-1.676-1.102-3.856-1.654-6.539-1.654h-7.374v14.236
				H374.002L374.002,99.732z M386.478,112.467c0-1.332-0.316-2.496-0.943-3.494c-0.629-0.998-1.482-1.818-2.558-2.464
				c-1.08-0.644-2.333-1.12-3.771-1.429c-1.432-0.312-2.957-0.466-4.574-0.466h-6.326v15.638h7.136c3.364,0,6.047-0.654,8.043-1.961
				C385.479,116.981,386.478,115.039,386.478,112.467L386.478,112.467z"/>
			<text transform="matrix(1 0 0 1 0.1841 158.1846)" font-family="'OpenSans'" font-size="17.234">ИНТЕРНЕТ-МАГАЗИН ИНТЕРЬЕРНЫХ РЕШЕНИЙ</text>
		</g>
	</g>
</g>
</svg>
